Papirus/22x22/mimetypes/text-x-po.svg

<?xml version="1.0" encoding="UTF-8" standalone="no"?>
<svg xmlns="http://www.w3.org/2000/svg" height="22" width="22" version="1">
 <g transform="translate(-1,-1)">
  <path d="m5 2c-0.554 0-1 0.446-1 1v18c0 0.554 0.446 1 1 1h14c0.554 0 1-0.446 1-1v-13l-5.5-0.5-0.5-5.5z" fill="#ccc"/>
  <path opacity=".5" style="enable-background:new" d="m9.125 12s-1.125 0.001-1.125 1.111v3.7774c0 0.616 0.5092 1.112 1.1426 1.112h2.8574l1 2 1-2h0.85742s1.143-0.001 1.143-1.111v-3.7773c0-1.111-1.143-1.112-1.143-1.112h-5.732zm-0.125 1h6v1h-6v-1zm0 2h6v1h-6v-1z"/>
  <path opacity=".2" d="m5 2c-0.554 0-1 0.446-1 1v0.5c0-0.554 0.446-1 1-1h9l5.5 5.5h0.5l-6-6z" fill="#fff"/>
  <path d="m14 2v5c0 0.5523 0.44772 1 1 1h5l-6-6z" fill="#ebebeb"/>
 </g>
</svg>

<svg xmlns="http://www.w3.org/2000/svg" width="22" height="22" version="1">
 <g transform="translate(-1,-1)">
  <path style="opacity:0.2;fill:#060606" d="m 5,2.5 c -0.554,0 -1,0.446 -1,1 v 18 c 0,0.554 0.446,1 1,1 h 14 c 0.554,0 1,-0.446 1,-1 V 8.5 L 14.5,8 14,2.5 Z"/>
  <path style="fill:#cccccc" d="M 5,2 C 4.446,2 4,2.446 4,3 v 18 c 0,0.554 0.446,1 1,1 h 14 c 0.554,0 1,-0.446 1,-1 V 8 L 14.5,7.5 14,2 Z"/>
  <path style="opacity:0.5" d="M 9.125,12 C 9.125,12 8,12.001 8,13.111 v 3.778 C 8,17.504 8.5092,18 9.1426,18 H 12 l 1,2 1,-2 h 0.857 C 14.857,18 16,17.999 16,16.889 V 13.111 C 16,12.001 14.857,12 14.857,12 Z M 9,13 h 6 v 1 H 9 Z m 0,2 h 6 v 1 H 9 Z"/>
  <path style="opacity:0.2;fill:#ffffff" d="M 5,2 C 4.446,2 4,2.446 4,3 v 0.5 c 0,-0.554 0.446,-1 1,-1 h 9 L 19.5,8 H 20 L 14,2 Z"/>
  <path style="opacity:0.2;fill:#060606" d="m 14,2.5 v 5 c 0,0.5523 0.44772,1 1,1 h 5 z"/>
  <path style="fill:#ebebeb" d="m 14,2 v 5 c 0,0.5523 0.44772,1 1,1 h 5 z"/>
 </g>
</svg>
